!!!COM:	Bach, Johann Sebastian
!!!OMV:	O Gott, du frommer Gott
!!!OTL:	O Gott, du frommer Gott
**kern	**fb	**kern	**kern	**kern	**kern
*part5	*part5	*part4	*part3	*part2	*part1
*staff5	*	*staff4	*staff3	*staff2	*staff1
*I"Voice	*	*I"Voice	*I"Voice	*I"Voice	*I"Tromba
*I'V	*	*I'V	*I'V	*I'V	*I'Tromb.
*clefF4	*	*clefGv2	*clefG2	*clefG2	*clefG2
*k[]	*	*k[]	*k[]	*k[]	*k[]
*M4/4	*	*M4/4	*M4/4	*M4/4	*M4/4
4C	.	4G	4e	4cc	8ggL
.	.	.	.	.	8ffJ
=2	=2	=2	=2	=2	=2
8cL	.	4c	4e	4g	4ee
8BJ	.	.	.	.	.
4A	#6\	4c	4f#X	4a	8ddL
.	.	.	.	.	8ccJ
8GL	.	4d	4g	4b	[2gg
8FJ	.	.	.	.	.
4E	6	8GL	4g	4cc	.
.	.	8AJ	.	.	.
=3	=3	=3	=3	=3	=3
4D	6	4B	4fn	4dd	2gg_
4C	.	4c	4e	4ee	.
4F;	.	4c;	4a;	4cc;	8ggL]
.	.	.	.	.	8ff;J
4C	.	8cL	4g	8eeL	8eeL
.	.	8dJ	.	8ffJ	8ddJ
=4	=4	=4	=4	=4	=4
4c	.	8eL	8gL	4gg	8cc
.	.	8fJ	8fJ	.	4ccc
4G	4	8gL	8eL	4gg	.
.	3	8GJ	8dJ	.	8bb
4A	5	4c	4c	8eeL	8cccL
.	6	.	.	8ffJ	8dddJ
4E	5	4G	4B	4gg	[4eee
=	=	=	=	=	=
4AA	6 5	8AL	4c	2ff	8eeeL]
.	.	8FJ	.	.	8aaJ
4BB	6 5	4G	4g	.	[4ddd
4C	.	4C	4g	4ee	8dddL]
.	.	.	.	.	8cccJ
=5:|!	=5:|!	=5:|!	=5:|!	=5:|!	=5:|!
4C	.	4c	4g	4ee	8cccL
.	.	.	.	.	8bbJ
=6	=6	=6	=6	=6	=6
!!linebreak:original
4D	7	8cL	4d	4ff	8aaL
.	6	16BL	.	.	8bbJ
.	.	16AJJ	.	.	.
8EL	6	4G	4c	4ee	[4ccc
8FJ	.	.	.	.	.
4G	4	8dL	4.g	4dd	8cccL]
.	3	16eL	.	.	8bbJ
.	.	16fJJ	.	.	.
8AL	7	8eL	.	8ccL	4ccc
8BJ	5	8dJ	8f	8ddJ	.
=7	=7	=7	=7	=7	=7
4c	5	4c	8eL	4ee	8ggL
.	6	.	8fJ	.	8aaJ
4C	-r7	4c	4g	8eeL	[4bb-X
.	.	.	.	8ddJ	.
4F;	.	4c;	8gL	4cc;	8bb-L]
.	.	.	8f;J	.	8aa;
4D	6	4F	4B	4dd	8gg
.	.	.	.	.	8ffJ
=8	=8	=8	=8	=8	=8
4C	.	4G	8cL	4ee	8cccL
.	.	.	8dJ	.	8bbnJ
4C	6	8cL	8eL	4ee	8aaL
.	5	16dL	8AJ	.	8ggJ
.	.	16eJJ	.	.	.
4c	#4| 2	4.d	4f#X	4a	[2ddd
4B	6	.	4g	4b	.
.	.	16cLL	.	.	.
.	.	16BJJ	.	.	.
=9	=9	=9	=9	=9	=9
8F#XL	6 5	8AL	8aL	8ccL	4.ddd]
8GJ	.	16BL	8gJ	8bJ	.
.	.	16cJJ	.	.	.
4D	#	8dL	4f#X	4a	.
.	.	8dJ	.	.	8ccc
4GG;	.	4d;	4g;	4g;	8bb;L
.	.	.	.	.	8aaJ
8GL	.	8BL	4d	4g	[4gg
8FnJ	.	8AJ	.	.	.
=10	=10	=10	=10	=10	=10
!!pagebreak:original
8EL	6	8GL	4.g	4cc	1gg]
8FJ	.	8AJ	.	.	.
8EL	7 5 2	4B	.	4dd	.
8DJ	.	.	8fn	.	.
8CL	.	4c	8eL	4ee	.
8DJ	.	.	8fJ	.	.
8CL	5 2	8dL	4g	8ddL	.
8BBJ	.	8GJ	.	8eeJ	.
=11	=11	=11	=11	=11	=11
4AA	6	8cL	4f	4ff	8aaL
.	.	8dJ	.	.	8bbJ
4GG	6 4	4e	8gL	8eeL	[4ccc
.	.	.	16aL	8ddJ	.
.	.	.	16b-XJJ	.	.
4FF	6 5	8fL	4a	2dd	4ccc]
.	.	8eJ	.	.	.
4GG	.	8dL	4g	.	4bb
.	.	16eL	.	.	.
.	.	16fJJ	.	.	.
=12	=12	=12	=12	=12	=12
2.C;	.	2.e;	2.g;	2.cc;	2.ccc;
=||	=||	=||	=||	=||	=||
*-	*-	*-	*-	*-	*-
!!!system-decoration: s1,s2,s3,s4,s5
